report_00007_2020-12-11T15:55:29.892Z/network-rtt/comparison/sorted/8_vs_9.svg

<svg width="640" height="500" xmlns="http://www.w3.org/2000/svg" xmlns:xlink="http://www.w3.org/1999/xlink"><path fill="#fff" d="M0 0h640v500H0z"/><defs><path id="d" stroke-width=".222" stroke="currentColor" d="M-1-1h2v2h-2z"/><path id="b" stroke-width=".222" stroke="currentColor" d="M0-1.33l-1.33 2h2.66z"/><path id="f" stroke-width=".222" stroke="currentColor" d="M0 1.33L1.265.411.782-1.067l-1.564-.009-.483 1.487z"/><use xlink:href="#b" id="c" stroke="currentColor" transform="rotate(180)"/><use xlink:href="#d" id="e" stroke="currentColor" transform="rotate(45)"/><circle id="a" stroke-width=".222" stroke="currentColor" cx="0" cy="0" r="1"/></defs><g fill="none" color="#000" stroke="currentColor"><path stroke="#000" d="M62.2 430.5h9m543.8 0h-9"/><text transform="translate(53.9 434.4)" stroke="none" fill="#000" font-family="Arial" font-size="12" text-anchor="end"><tspan>0.05</tspan></text></g><g fill="none" color="#000" stroke="currentColor"><path stroke="#000" d="M62.2 326.4h9m543.8 0h-9"/><text transform="translate(53.9 330.3)" stroke="none" fill="#000" font-family="Arial" font-size="12" text-anchor="end"><tspan>0.1</tspan></text></g><g fill="none" color="#000" stroke="currentColor"><path stroke="#000" d="M62.2 222.3h9m543.8 0h-9"/><text transform="translate(53.9 226.2)" stroke="none" fill="#000" font-family="Arial" font-size="12" text-anchor="end"><tspan>0.15</tspan></text></g><g fill="none" color="#000" stroke="currentColor"><path stroke="#000" d="M62.2 118.2h9m543.8 0h-9"/><text transform="translate(53.9 122.1)" stroke="none" fill="#000" font-family="Arial" font-size="12" text-anchor="end"><tspan>0.2</tspan></text></g><g fill="none" color="#000" stroke="currentColor"><path stroke="#000" d="M62.2 446v-9m0-418.9v9"/><text transform="translate(62.2 467.9)" stroke="none" fill="#000" font-family="Arial" font-size="12" text-anchor="middle"><tspan>0</tspan></text></g><g fill="none" color="#000" stroke="currentColor"><path stroke="#000" d="M118 446v-9m0-418.9v9"/><text transform="translate(118 467.9)" stroke="none" fill="#000" font-family="Arial" font-size="12" text-anchor="middle"><tspan>10</tspan></text></g><g fill="none" color="#000" stroke="currentColor"><path stroke="#000" d="M173.9 446v-9m0-418.9v9"/><text transform="translate(173.9 467.9)" stroke="none" fill="#000" font-family="Arial" font-size="12" text-anchor="middle"><tspan>20</tspan></text></g><g fill="none" color="#000" stroke="currentColor"><path stroke="#000" d="M229.7 446v-9m0-418.9v9"/><text transform="translate(229.7 467.9)" stroke="none" fill="#000" font-family="Arial" font-size="12" text-anchor="middle"><tspan>30</tspan></text></g><g fill="none" color="#000" stroke="currentColor"><path stroke="#000" d="M285.6 446v-9m0-418.9v9"/><text transform="translate(285.6 467.9)" stroke="none" fill="#000" font-family="Arial" font-size="12" text-anchor="middle"><tspan>40</tspan></text></g><g fill="none" color="#000" stroke="currentColor"><path stroke="#000" d="M341.4 446v-9m0-418.9v9"/><text transform="translate(341.4 467.9)" stroke="none" fill="#000" font-family="Arial" font-size="12" text-anchor="middle"><tspan>50</tspan></text></g><g fill="none" color="#000" stroke="currentColor"><path stroke="#000" d="M397.2 446v-9m0-418.9v9"/><text transform="translate(397.2 467.9)" stroke="none" fill="#000" font-family="Arial" font-size="12" text-anchor="middle"><tspan>60</tspan></text></g><g fill="none" color="#000" stroke="currentColor"><path stroke="#000" d="M453.1 446v-9m0-418.9v9"/><text transform="translate(453.1 467.9)" stroke="none" fill="#000" font-family="Arial" font-size="12" text-anchor="middle"><tspan>70</tspan></text></g><g fill="none" color="#000" stroke="currentColor"><path stroke="#000" d="M508.9 446v-9m0-418.9v9"/><text transform="translate(508.9 467.9)" stroke="none" fill="#000" font-family="Arial" font-size="12" text-anchor="middle"><tspan>80</tspan></text></g><g fill="none" color="#000" stroke="currentColor"><path stroke="#000" d="M564.7 446v-9m0-418.9v9"/><text transform="translate(564.7 467.9)" stroke="none" fill="#000" font-family="Arial" font-size="12" text-anchor="middle"><tspan>90</tspan></text></g><path stroke="#000" d="M62.2 18.1V446H615V18.1H62.2z" fill="none" color="#000"/><text transform="translate(279.8 485.9)" stroke="none" fill="#000" font-family="Arial" font-size="12" text-anchor="end" color="#000"><tspan>pages+cached+noexternal+noimg</tspan></text><path stroke="#9400D3" d="M288.1 482h42.2M62.2 437.8l5.6-6.9 5.6-1.5 5.6-.2 5.5-1.4 5.6-1.7 5.6-4.6 5.6-.6 5.6-1.2 5.6-1.7 5.5-.2 5.6-2.9 5.6-.4 5.6-2.1 5.6-2.5 5.6-.2 5.5-1.7 5.6-.6 5.6-.7 5.6-.8 5.6-.4 5.6-.2h5.5l5.6-.4h5.6l5.6-1.1 5.6-.6 5.6-.2 5.5-.4 5.6-.2 5.6-.2 5.6-.2 5.6-1.1 5.6-.4h5.6l5.5-.4 5.6-1.7h5.6l5.6-.4 5.6-.8h5.6l5.5-.9 5.6-1.2 5.6-.6 5.6-.5h5.6l5.6-.4h5.5l5.6-1.4 5.6-1.3h5.6l5.6-.2 5.6-.8h5.5l5.6-.2h5.6l5.6-.2 5.6-.7 5.6-.4 5.5-.2h11.2l5.6-.6 5.6-2.9 5.6-.4 5.5-1.7h5.6l5.6-.4 5.6-.4 5.6-.7h5.6l5.6-2 5.5-3.8 5.6-.4 5.6-.8h5.6l5.6-3.6 5.6-2.1 5.5-.6 5.6-1.2 5.6-.2 5.6-1.9 5.6-1.3 5.6-.2 5.5-3.1 5.6-2.5 5.6-1 5.6-3 5.6-.4 5.6-15.4 5.5-23.9 5.6-4.8 5.6-2.5 5.6-.4 5.6-2.9 5.6-46.9 5.5-53.1 5.6-4.6 5.6-34.5L615 26.3" fill="none" color="#000"/><text transform="translate(579.3 485.9)" stroke="none" fill="#000" font-family="Arial" font-size="12" text-anchor="end" color="#000"><tspan>pages+cached+noexternal+nocss</tspan></text><path stroke="#009E73" d="M587.6 482h42.2M62.2 435.9l5.6-1.5 5.6-1 5.6-1.5 5.5-1.2 5.6-.2 5.6-.4 5.6-2.1 5.6-.4 5.6-.4 5.5-.9 5.6-3.7 5.6-.2 5.6-.9 5.6-.2 5.6-1 5.5-.4h5.6l5.6-.9 5.6-.2 5.6-.2 5.6-.2 5.5-1h5.6l5.6-1.5 5.6-1 5.6-1.1 5.6-.8 5.5-1 5.6-.7 5.6-.4 5.6-2.3h5.6l5.6-3.5 5.6-.4 5.5-1.1 5.6-1.6h5.6l5.6-.5 5.6-.2 5.6-.4 5.5-.4 5.6-1.9 5.6-.4h5.6l5.6-.4 5.6-1 5.5-1.5 5.6-.4h5.6l5.6-.9h5.6l5.6-.8 5.5-.8h5.6l5.6-.2 5.6-.2h5.6l5.6-2.3 5.5-.9 5.6-.4 5.6-2.3 5.6-.6h5.6l5.6-.2 5.5-.2 5.6-.2h5.6l5.6-.2 5.6-.6 5.6-1.9 5.6-.2 5.5-.4 5.6-1.5 5.6-.2 5.6-4.6 5.6-.2 5.6-.2 5.5-1.3h5.6l5.6-.6 5.6-.2h5.6l5.6-1.2 5.5-.5h5.6l5.6-1.6 5.6-.9 5.6-2.7 5.6-.4 5.5-2.5 5.6-3.5 5.6-.4 5.6-.5 5.6-.4 5.6-2.9 5.5-2.7 5.6-2.5 5.6-3.3 5.6-16.3" fill="none" color="#000"/><g fill="none" color="#000" stroke="currentColor"><path stroke="#000" d="M62.2 18.1V446H615V18.1H62.2z"/></g></svg>

<?xml version="1.0" encoding="utf-8"  standalone="no"?>
<svg 
 width="640" height="500"
 viewBox="0 0 640 500"
 xmlns="http://www.w3.org/2000/svg"
 xmlns:xlink="http://www.w3.org/1999/xlink"
>

<title>Gnuplot</title>
<desc>Produced by GNUPLOT 5.4 patchlevel 0 </desc>

<g id="gnuplot_canvas">

<rect x="0" y="0" width="640" height="500" fill="#ffffff"/>
<defs>

	<circle id='gpDot' r='0.5' stroke-width='0.5' stroke='currentColor'/>
	<path id='gpPt0' stroke-width='0.222' stroke='currentColor' d='M-1,0 h2 M0,-1 v2'/>
	<path id='gpPt1' stroke-width='0.222' stroke='currentColor' d='M-1,-1 L1,1 M1,-1 L-1,1'/>
	<path id='gpPt2' stroke-width='0.222' stroke='currentColor' d='M-1,0 L1,0 M0,-1 L0,1 M-1,-1 L1,1 M-1,1 L1,-1'/>
	<rect id='gpPt3' stroke-width='0.222' stroke='currentColor' x='-1' y='-1' width='2' height='2'/>
	<rect id='gpPt4' stroke-width='0.222' stroke='currentColor' fill='currentColor' x='-1' y='-1' width='2' height='2'/>
	<circle id='gpPt5' stroke-width='0.222' stroke='currentColor' cx='0' cy='0' r='1'/>
	<use xlink:href='#gpPt5' id='gpPt6' fill='currentColor' stroke='none'/>
	<path id='gpPt7' stroke-width='0.222' stroke='currentColor' d='M0,-1.33 L-1.33,0.67 L1.33,0.67 z'/>
	<use xlink:href='#gpPt7' id='gpPt8' fill='currentColor' stroke='none'/>
	<use xlink:href='#gpPt7' id='gpPt9' stroke='currentColor' transform='rotate(180)'/>
	<use xlink:href='#gpPt9' id='gpPt10' fill='currentColor' stroke='none'/>
	<use xlink:href='#gpPt3' id='gpPt11' stroke='currentColor' transform='rotate(45)'/>
	<use xlink:href='#gpPt11' id='gpPt12' fill='currentColor' stroke='none'/>
	<path id='gpPt13' stroke-width='0.222' stroke='currentColor' d='M0,1.330 L1.265,0.411 L0.782,-1.067 L-0.782,-1.076 L-1.265,0.411 z'/>
	<use xlink:href='#gpPt13' id='gpPt14' fill='currentColor' stroke='none'/>
	<filter id='textbox' filterUnits='objectBoundingBox' x='0' y='0' height='1' width='1'>
	  <feFlood flood-color='#FFFFFF' flood-opacity='1' result='bgnd'/>
	  <feComposite in='SourceGraphic' in2='bgnd' operator='atop'/>
	</filter>
	<filter id='greybox' filterUnits='objectBoundingBox' x='0' y='0' height='1' width='1'>
	  <feFlood flood-color='lightgrey' flood-opacity='1' result='grey'/>
	  <feComposite in='SourceGraphic' in2='grey' operator='atop'/>
	</filter>
</defs>
<g fill="none" color="#FFFFFF" stroke="black" stroke-width="1.00" stroke-linecap="butt" stroke-linejoin="miter">
</g>
<g fill="none" color="black" stroke="currentColor" stroke-width="1.00" stroke-linecap="butt" stroke-linejoin="miter">
	<path stroke='black'  d='M62.2,430.5 L71.2,430.5 M615.0,430.5 L606.0,430.5  '/>	<g transform="translate(53.9,434.4)" stroke="none" fill="black" font-family="Arial" font-size="12.00"  text-anchor="end">
		<text><tspan font-family="Arial" > 0.05</tspan></text>
	</g>
</g>
<g fill="none" color="black" stroke="currentColor" stroke-width="1.00" stroke-linecap="butt" stroke-linejoin="miter">
	<path stroke='black'  d='M62.2,326.4 L71.2,326.4 M615.0,326.4 L606.0,326.4  '/>	<g transform="translate(53.9,330.3)" stroke="none" fill="black" font-family="Arial" font-size="12.00"  text-anchor="end">
		<text><tspan font-family="Arial" > 0.1</tspan></text>
	</g>
</g>
<g fill="none" color="black" stroke="currentColor" stroke-width="1.00" stroke-linecap="butt" stroke-linejoin="miter">
	<path stroke='black'  d='M62.2,222.3 L71.2,222.3 M615.0,222.3 L606.0,222.3  '/>	<g transform="translate(53.9,226.2)" stroke="none" fill="black" font-family="Arial" font-size="12.00"  text-anchor="end">
		<text><tspan font-family="Arial" > 0.15</tspan></text>
	</g>
</g>
<g fill="none" color="black" stroke="currentColor" stroke-width="1.00" stroke-linecap="butt" stroke-linejoin="miter">
	<path stroke='black'  d='M62.2,118.2 L71.2,118.2 M615.0,118.2 L606.0,118.2  '/>	<g transform="translate(53.9,122.1)" stroke="none" fill="black" font-family="Arial" font-size="12.00"  text-anchor="end">
		<text><tspan font-family="Arial" > 0.2</tspan></text>
	</g>
</g>
<g fill="none" color="black" stroke="currentColor" stroke-width="1.00" stroke-linecap="butt" stroke-linejoin="miter">
	<path stroke='black'  d='M62.2,446.0 L62.2,437.0 M62.2,18.1 L62.2,27.1  '/>	<g transform="translate(62.2,467.9)" stroke="none" fill="black" font-family="Arial" font-size="12.00"  text-anchor="middle">
		<text><tspan font-family="Arial" > 0</tspan></text>
	</g>
</g>
<g fill="none" color="black" stroke="currentColor" stroke-width="1.00" stroke-linecap="butt" stroke-linejoin="miter">
	<path stroke='black'  d='M118.0,446.0 L118.0,437.0 M118.0,18.1 L118.0,27.1  '/>	<g transform="translate(118.0,467.9)" stroke="none" fill="black" font-family="Arial" font-size="12.00"  text-anchor="middle">
		<text><tspan font-family="Arial" > 10</tspan></text>
	</g>
</g>
<g fill="none" color="black" stroke="currentColor" stroke-width="1.00" stroke-linecap="butt" stroke-linejoin="miter">
	<path stroke='black'  d='M173.9,446.0 L173.9,437.0 M173.9,18.1 L173.9,27.1  '/>	<g transform="translate(173.9,467.9)" stroke="none" fill="black" font-family="Arial" font-size="12.00"  text-anchor="middle">
		<text><tspan font-family="Arial" > 20</tspan></text>
	</g>
</g>
<g fill="none" color="black" stroke="currentColor" stroke-width="1.00" stroke-linecap="butt" stroke-linejoin="miter">
	<path stroke='black'  d='M229.7,446.0 L229.7,437.0 M229.7,18.1 L229.7,27.1  '/>	<g transform="translate(229.7,467.9)" stroke="none" fill="black" font-family="Arial" font-size="12.00"  text-anchor="middle">
		<text><tspan font-family="Arial" > 30</tspan></text>
	</g>
</g>
<g fill="none" color="black" stroke="currentColor" stroke-width="1.00" stroke-linecap="butt" stroke-linejoin="miter">
	<path stroke='black'  d='M285.6,446.0 L285.6,437.0 M285.6,18.1 L285.6,27.1  '/>	<g transform="translate(285.6,467.9)" stroke="none" fill="black" font-family="Arial" font-size="12.00"  text-anchor="middle">
		<text><tspan font-family="Arial" > 40</tspan></text>
	</g>
</g>
<g fill="none" color="black" stroke="currentColor" stroke-width="1.00" stroke-linecap="butt" stroke-linejoin="miter">
	<path stroke='black'  d='M341.4,446.0 L341.4,437.0 M341.4,18.1 L341.4,27.1  '/>	<g transform="translate(341.4,467.9)" stroke="none" fill="black" font-family="Arial" font-size="12.00"  text-anchor="middle">
		<text><tspan font-family="Arial" > 50</tspan></text>
	</g>
</g>
<g fill="none" color="black" stroke="currentColor" stroke-width="1.00" stroke-linecap="butt" stroke-linejoin="miter">
	<path stroke='black'  d='M397.2,446.0 L397.2,437.0 M397.2,18.1 L397.2,27.1  '/>	<g transform="translate(397.2,467.9)" stroke="none" fill="black" font-family="Arial" font-size="12.00"  text-anchor="middle">
		<text><tspan font-family="Arial" > 60</tspan></text>
	</g>
</g>
<g fill="none" color="black" stroke="currentColor" stroke-width="1.00" stroke-linecap="butt" stroke-linejoin="miter">
	<path stroke='black'  d='M453.1,446.0 L453.1,437.0 M453.1,18.1 L453.1,27.1  '/>	<g transform="translate(453.1,467.9)" stroke="none" fill="black" font-family="Arial" font-size="12.00"  text-anchor="middle">
		<text><tspan font-family="Arial" > 70</tspan></text>
	</g>
</g>
<g fill="none" color="black" stroke="currentColor" stroke-width="1.00" stroke-linecap="butt" stroke-linejoin="miter">
	<path stroke='black'  d='M508.9,446.0 L508.9,437.0 M508.9,18.1 L508.9,27.1  '/>	<g transform="translate(508.9,467.9)" stroke="none" fill="black" font-family="Arial" font-size="12.00"  text-anchor="middle">
		<text><tspan font-family="Arial" > 80</tspan></text>
	</g>
</g>
<g fill="none" color="black" stroke="currentColor" stroke-width="1.00" stroke-linecap="butt" stroke-linejoin="miter">
	<path stroke='black'  d='M564.7,446.0 L564.7,437.0 M564.7,18.1 L564.7,27.1  '/>	<g transform="translate(564.7,467.9)" stroke="none" fill="black" font-family="Arial" font-size="12.00"  text-anchor="middle">
		<text><tspan font-family="Arial" > 90</tspan></text>
	</g>
</g>
<g fill="none" color="black" stroke="currentColor" stroke-width="1.00" stroke-linecap="butt" stroke-linejoin="miter">
</g>
<g fill="none" color="black" stroke="currentColor" stroke-width="1.00" stroke-linecap="butt" stroke-linejoin="miter">
	<path stroke='black'  d='M62.2,18.1 L62.2,446.0 L615.0,446.0 L615.0,18.1 L62.2,18.1 Z  '/></g>
<g fill="none" color="black" stroke="currentColor" stroke-width="1.00" stroke-linecap="butt" stroke-linejoin="miter">
</g>
	<g id="gnuplot_plot_1" ><title>pages+cached+noexternal+noimg</title>
<g fill="none" color="black" stroke="currentColor" stroke-width="1.00" stroke-linecap="butt" stroke-linejoin="miter">
	<g transform="translate(279.8,485.9)" stroke="none" fill="black" font-family="Arial" font-size="12.00"  text-anchor="end">
		<text><tspan font-family="Arial" >pages+cached+noexternal+noimg</tspan></text>
	</g>
</g>
<g fill="none" color="black" stroke="currentColor" stroke-width="1.00" stroke-linecap="butt" stroke-linejoin="miter">
	<path stroke='rgb(148,   0, 211)'  d='M288.1,482.0 L330.3,482.0 M62.2,437.8 L67.8,430.9 L73.4,429.4 L79.0,429.2 L84.5,427.8 L90.1,426.1
		L95.7,421.5 L101.3,420.9 L106.9,419.7 L112.5,418.0 L118.0,417.8 L123.6,414.9 L129.2,414.5 L134.8,412.4
		L140.4,409.9 L146.0,409.7 L151.5,408.0 L157.1,407.4 L162.7,406.7 L168.3,405.9 L173.9,405.5 L179.5,405.3
		L185.0,405.3 L190.6,404.9 L196.2,404.9 L201.8,403.8 L207.4,403.2 L213.0,403.0 L218.5,402.6 L224.1,402.4
		L229.7,402.2 L235.3,402.0 L240.9,400.9 L246.5,400.5 L252.1,400.5 L257.6,400.1 L263.2,398.4 L268.8,398.4
		L274.4,398.0 L280.0,397.2 L285.6,397.2 L291.1,396.3 L296.7,395.1 L302.3,394.5 L307.9,394.0 L313.5,394.0
		L319.1,393.6 L324.6,393.6 L330.2,392.2 L335.8,390.9 L341.4,390.9 L347.0,390.7 L352.6,389.9 L358.1,389.9
		L363.7,389.7 L369.3,389.7 L374.9,389.5 L380.5,388.8 L386.1,388.4 L391.6,388.2 L397.2,388.2 L402.8,388.2
		L408.4,387.6 L414.0,384.7 L419.6,384.3 L425.1,382.6 L430.7,382.6 L436.3,382.2 L441.9,381.8 L447.5,381.1
		L453.1,381.1 L458.7,379.1 L464.2,375.3 L469.8,374.9 L475.4,374.1 L481.0,374.1 L486.6,370.5 L492.2,368.4
		L497.7,367.8 L503.3,366.6 L508.9,366.4 L514.5,364.5 L520.1,363.2 L525.7,363.0 L531.2,359.9 L536.8,357.4
		L542.4,356.4 L548.0,353.4 L553.6,353.0 L559.2,337.6 L564.7,313.7 L570.3,308.9 L575.9,306.4 L581.5,306.0
		L587.1,303.1 L592.7,256.2 L598.2,203.1 L603.8,198.5 L609.4,164.0 L615.0,26.3  '/></g>
	</g>
	<g id="gnuplot_plot_2" ><title>pages+cached+noexternal+nocss</title>
<g fill="none" color="black" stroke="currentColor" stroke-width="1.00" stroke-linecap="butt" stroke-linejoin="miter">
	<g transform="translate(579.3,485.9)" stroke="none" fill="black" font-family="Arial" font-size="12.00"  text-anchor="end">
		<text><tspan font-family="Arial" >pages+cached+noexternal+nocss</tspan></text>
	</g>
</g>
<g fill="none" color="black" stroke="currentColor" stroke-width="1.00" stroke-linecap="butt" stroke-linejoin="miter">
	<path stroke='rgb(  0, 158, 115)'  d='M587.6,482.0 L629.8,482.0 M62.2,435.9 L67.8,434.4 L73.4,433.4 L79.0,431.9 L84.5,430.7 L90.1,430.5
		L95.7,430.1 L101.3,428.0 L106.9,427.6 L112.5,427.2 L118.0,426.3 L123.6,422.6 L129.2,422.4 L134.8,421.5
		L140.4,421.3 L146.0,420.3 L151.5,419.9 L157.1,419.9 L162.7,419.0 L168.3,418.8 L173.9,418.6 L179.5,418.4
		L185.0,417.4 L190.6,417.4 L196.2,415.9 L201.8,414.9 L207.4,413.8 L213.0,413.0 L218.5,412.0 L224.1,411.3
		L229.7,410.9 L235.3,408.6 L240.9,408.6 L246.5,405.1 L252.1,404.7 L257.6,403.6 L263.2,402.0 L268.8,402.0
		L274.4,401.5 L280.0,401.3 L285.6,400.9 L291.1,400.5 L296.7,398.6 L302.3,398.2 L307.9,398.2 L313.5,397.8
		L319.1,396.8 L324.6,395.3 L330.2,394.9 L335.8,394.9 L341.4,394.0 L347.0,394.0 L352.6,393.2 L358.1,392.4
		L363.7,392.4 L369.3,392.2 L374.9,392.0 L380.5,392.0 L386.1,389.7 L391.6,388.8 L397.2,388.4 L402.8,386.1
		L408.4,385.5 L414.0,385.5 L419.6,385.3 L425.1,385.1 L430.7,384.9 L436.3,384.9 L441.9,384.7 L447.5,384.1
		L453.1,382.2 L458.7,382.0 L464.2,381.6 L469.8,380.1 L475.4,379.9 L481.0,375.3 L486.6,375.1 L492.2,374.9
		L497.7,373.6 L503.3,373.6 L508.9,373.0 L514.5,372.8 L520.1,372.8 L525.7,371.6 L531.2,371.1 L536.8,371.1
		L542.4,369.5 L548.0,368.6 L553.6,365.9 L559.2,365.5 L564.7,363.0 L570.3,359.5 L575.9,359.1 L581.5,358.6
		L587.1,358.2 L592.7,355.3 L598.2,352.6 L603.8,350.1 L609.4,346.8 L615.0,330.5  '/></g>
	</g>
<g fill="none" color="#FFFFFF" stroke="rgb(  0, 158, 115)" stroke-width="2.00" stroke-linecap="butt" stroke-linejoin="miter">
</g>
<g fill="none" color="black" stroke="currentColor" stroke-width="2.00" stroke-linecap="butt" stroke-linejoin="miter">
</g>
<g fill="none" color="black" stroke="black" stroke-width="1.00" stroke-linecap="butt" stroke-linejoin="miter">
</g>
<g fill="none" color="black" stroke="currentColor" stroke-width="1.00" stroke-linecap="butt" stroke-linejoin="miter">
	<path stroke='black'  d='M62.2,18.1 L62.2,446.0 L615.0,446.0 L615.0,18.1 L62.2,18.1 Z  '/></g>
<g fill="none" color="black" stroke="currentColor" stroke-width="1.00" stroke-linecap="butt" stroke-linejoin="miter">
</g>
</g>
</svg>
